!!!OTL: 1440. Der verschlafene Jaeger.
!!!ARE: Europa, Mitteleuropa, Deutschland, Thueringen; Schleswig; Bergisches
!!    Land
!!!SCT: E1440
!!!TXL: @@DE
!!!YEM: Copyright 1995, estate of Helmut Schaffrath.
**kern	**text
*ICvox	*
*M6/8	*
*k[f#c#]	*
*D:	*
!LO:TX:a:t=Geschwind.	!
!LO:TX:a:t=Mel. aus Thüringen und dem Bergiſchen 1840. Schleswig 1891.	!
{8a	Es
=1	=1
4a	wollt
8a	ein
8aL	Jä-
8bJ	.
8cc#	-ger
=2	=2
4.dd	ja-
4a}	-gen
{8a	drei-
=3	=3
4b	-vier-
8b	-tel
8ddL	Stund
8cc#J	.
8b	vor
=4	=4
4.a	Ta-
4f#}	-gen,
{8a	wol
=5	=5
4a	in
8g	dem
4e	grü-
8cc#	-nen
=6	=6
4dd	Wald,
8ff#	ja
4ff#}	Wald,
{8dd	wol
=7	=7
4ee	in
8ee	dem
8.cc#L	grü-
16bJ	.
8cc#	-nen
=8	=8
4.dd	Wald.
4r}	.
==	==
!!!AGN: Staende -, Jaeger - Lied, Liebe
!!!ONB: ESAC (Essen Associative Code) Database: ERK3
!!!AMT: compound duple
!!!AIN: vox
!!!EED: Helmut Schaffrath
!!!EEV: 1.0
!!!GTL: Staendelieder (Berufslieder). 2. Jaegerlieder und Jaegerballaden.
!!!URL-scan: https://rosdok.uni-rostock.de/mcrviewer/recordIdentifier/rosdok_ppn745177999/iview2/phys_0305.iview2?x=-128.77276441889285&y=770.1630919044837&scale=0.5870222003877487&rotation=0&layout=singlePageLayout
!!!ENC: Anna Maria Matuszewska
!!!EEV: 2024/12/31
*-	*-
